SFASUI/public/images/modal-image6.svg

<svg width="220" height="110" viewBox="0 0 220 110" fill="none" xmlns="http://www.w3.org/2000/svg">
<path opacity="0.5" d="M85.4079 90.351C103.085 90.351 115.224 99.5076 123.741 99.5076C132.259 99.5076 150.148 94.6111 150.148 55.4268C150.148 16.2425 126.082 10.4899 116.713 10.4899C72.8422 10.4899 54.1023 90.351 85.4079 90.351V90.351Z" fill="#F5F3F7"/>
<path d="M130.205 14.4174L132.012 12.6103L135.626 16.2244L133.819 18.0315L130.205 14.4174Z" fill="#ABA7AF"/>
<path d="M74.5337 40.4031L72.2515 39.2532L74.5514 34.6887L76.8336 35.8387L74.5337 40.4031Z" fill="#ABA7AF"/>
<path d="M140.594 24.8114L142.401 23.0044L146.015 26.6185L144.208 28.4255L140.594 24.8114Z" fill="#ABA7AF"/>
<path d="M81.1497 27.2806L78.8675 26.1306L81.1673 21.5662L83.4496 22.7162L81.1497 27.2806Z" fill="#ABA7AF"/>
<path d="M140.135 16.2157L143.749 12.6016L145.556 14.4086L141.942 18.0227L140.135 16.2157Z" fill="#ABA7AF"/>
<path d="M73.1305 30.4102L68.5661 28.1103L69.716 25.8281L74.2804 28.128L73.1305 30.4102Z" fill="#ABA7AF"/>
<path opacity="0.5" d="M133.639 81.1945H86.3611C83.5372 81.1945 81.25 78.9072 81.25 76.0834V37.75H138.75V76.0834C138.75 78.9072 136.463 81.1945 133.639 81.1945Z" fill="#F5F3F7"/>
<path d="M138.75 37.7501H81.25V33.9168C81.25 31.0929 83.5372 28.8057 86.3611 28.8057H133.639C136.463 28.8057 138.75 31.0929 138.75 33.9168V37.7501Z" fill="#C7522D"/>
<path d="M92.1111 28.8057H86.3611C83.5372 28.8057 81.25 31.0929 81.25 33.9168V37.7501H87V33.9168C87 31.0929 89.2872 28.8057 92.1111 28.8057Z" fill="#C7522D"/>
<path d="M97.2222 57.5553C94.4034 57.5553 92.1111 55.2629 92.1111 52.4442C92.1111 49.6254 94.4034 47.333 97.2222 47.333C100.041 47.333 102.333 49.6254 102.333 52.4442C102.333 55.2629 100.041 57.5553 97.2222 57.5553ZM97.2222 51.1664C96.5169 51.1664 95.9444 51.7414 95.9444 52.4442C95.9444 53.1469 96.5169 53.7219 97.2222 53.7219C97.9275 53.7219 98.5 53.1469 98.5 52.4442C98.5 51.7414 97.9275 51.1664 97.2222 51.1664Z" fill="#1A141F"/>
<path d="M97.2222 54.2222C98.2041 54.2222 99 53.4263 99 52.4445C99 51.4626 98.2041 50.6667 97.2222 50.6667C96.2404 50.6667 95.4445 51.4626 95.4445 52.4445C95.4445 53.4263 96.2404 54.2222 97.2222 54.2222Z" fill="#C7522D"/>
<path d="M122.778 57.5553C119.959 57.5553 117.667 55.2629 117.667 52.4442C117.667 49.6254 119.959 47.333 122.778 47.333C125.597 47.333 127.889 49.6254 127.889 52.4442C127.889 55.2629 125.597 57.5553 122.778 57.5553ZM122.778 51.1664C122.072 51.1664 121.5 51.7414 121.5 52.4442C121.5 53.1469 122.072 53.7219 122.778 53.7219C123.483 53.7219 124.056 53.1469 124.056 52.4442C124.056 51.7414 123.483 51.1664 122.778 51.1664Z" fill="#1A141F"/>
<path d="M122.778 54.2222C123.76 54.2222 124.556 53.4263 124.556 52.4445C124.556 51.4626 123.76 50.6667 122.778 50.6667C121.796 50.6667 121 51.4626 121 52.4445C121 53.4263 121.796 54.2222 122.778 54.2222Z" fill="#C7522D"/>
<path d="M123.552 75.6004L122.198 74.246C115.471 67.5223 104.529 67.5223 97.8023 74.246L96.4479 75.6004L93.7365 72.889L95.0909 71.5345C103.312 63.3133 116.685 63.3133 124.907 71.5345L126.261 72.889L123.552 75.6004Z" fill="#1A141F"/>
<path d="M133.639 83.1109H86.3611C82.4844 83.1109 79.3334 79.9599 79.3334 76.0832V33.9165C79.3334 30.0397 82.4844 26.8887 86.3611 26.8887H133.639C137.516 26.8887 140.667 30.0397 140.667 33.9165V76.0832C140.667 79.9599 137.516 83.1109 133.639 83.1109ZM86.3611 30.7221C84.6004 30.7221 83.1667 32.1557 83.1667 33.9165V76.0832C83.1667 77.8439 84.6004 79.2776 86.3611 79.2776H133.639C135.4 79.2776 136.833 77.8439 136.833 76.0832V33.9165C136.833 32.1557 135.4 30.7221 133.639 30.7221H86.3611Z" fill="#1A141F"/>
<path d="M81.25 35.833H138.75V39.6664H81.25V35.833Z" fill="#1A141F"/>
<path d="M69.1111 79.2775H150.889V83.1108H69.1111V79.2775Z" fill="#1A141F"/>
</svg>

<svg width="220" height="110" fill="none" xmlns="http://www.w3.org/2000/svg"><path opacity=".5" d="M85.408 90.351c17.677 0 29.816 9.157 38.333 9.157 8.518 0 26.407-4.897 26.407-44.081 0-39.184-24.066-44.937-33.435-44.937-43.87 0-62.61 79.861-31.305 79.861Z" fill="#F5F3F7"/><path d="m130.205 14.417 1.807-1.807 3.614 3.614-1.807 1.808-3.614-3.615ZM74.534 40.403l-2.283-1.15 2.3-4.564 2.283 1.15-2.3 4.564ZM140.594 24.811l1.807-1.807 3.614 3.614-1.807 1.808-3.614-3.615ZM81.15 27.28l-2.282-1.15 2.3-4.564 2.282 1.15-2.3 4.565ZM140.135 16.216l3.614-3.614 1.807 1.807-3.614 3.614-1.807-1.807ZM73.13 30.41l-4.564-2.3 1.15-2.282 4.564 2.3-1.15 2.282Z" fill="#ABA7AF"/><path opacity=".5" d="M133.639 81.195H86.361a5.11 5.11 0 0 1-5.111-5.112V37.75h57.5v38.333a5.11 5.11 0 0 1-5.111 5.112Z" fill="#F5F3F7"/><path d="M138.75 37.75h-57.5v-3.833a5.11 5.11 0 0 1 5.111-5.111h47.278a5.11 5.11 0 0 1 5.111 5.11v3.834Z" fill="#C7522D"/><path d="M92.111 28.806h-5.75a5.11 5.11 0 0 0-5.111 5.11v3.834H87v-3.833a5.11 5.11 0 0 1 5.111-5.111Z" fill="#C7522D"/><path d="M97.222 57.555a5.116 5.116 0 0 1-5.11-5.11 5.116 5.116 0 0 1 5.11-5.112 5.116 5.116 0 0 1 5.111 5.111 5.116 5.116 0 0 1-5.11 5.111Zm0-6.389a1.28 1.28 0 0 0-1.278 1.278 1.28 1.28 0 0 0 1.278 1.278 1.28 1.28 0 0 0 1.278-1.278 1.28 1.28 0 0 0-1.278-1.278Z" fill="#1A141F"/><path d="M97.222 54.222a1.778 1.778 0 1 0 0-3.555 1.778 1.778 0 0 0 0 3.555Z" fill="#C7522D"/><path d="M122.778 57.555a5.116 5.116 0 0 1-5.111-5.11 5.116 5.116 0 0 1 5.111-5.112 5.116 5.116 0 0 1 5.111 5.111 5.116 5.116 0 0 1-5.111 5.111Zm0-6.389a1.28 1.28 0 0 0-1.278 1.278 1.28 1.28 0 0 0 1.278 1.278 1.28 1.28 0 0 0 1.278-1.278 1.28 1.28 0 0 0-1.278-1.278Z" fill="#1A141F"/><path d="M122.778 54.222a1.778 1.778 0 1 0 0-3.555 1.778 1.778 0 0 0 0 3.555Z" fill="#C7522D"/><path d="m123.552 75.6-1.354-1.354c-6.727-6.724-17.669-6.724-24.396 0L96.448 75.6l-2.711-2.711 1.354-1.355c8.221-8.22 21.594-8.22 29.816 0l1.354 1.355-2.709 2.711Z" fill="#1A141F"/><path d="M133.639 83.11H86.361a7.034 7.034 0 0 1-7.028-7.027V33.917a7.034 7.034 0 0 1 7.028-7.028h47.278a7.034 7.034 0 0 1 7.028 7.027v42.167a7.034 7.034 0 0 1-7.028 7.028ZM86.361 30.723a3.199 3.199 0 0 0-3.194 3.194v42.167a3.199 3.199 0 0 0 3.194 3.195h47.278a3.198 3.198 0 0 0 3.194-3.195V33.917a3.198 3.198 0 0 0-3.194-3.195H86.361Z" fill="#1A141F"/><path d="M81.25 35.833h57.5v3.833h-57.5v-3.833ZM69.111 79.278h81.778v3.833H69.111v-3.834Z" fill="#1A141F"/></svg>
